src/lib/packages/icons/src/assets/filled/users-group-alt.svg

<svg width="24" height="24" viewBox="0 0 24 24" fill="none" xmlns="http://www.w3.org/2000/svg">
<path d="M15.8199 10.73C15.6699 10.63 15.66 10.42 15.78 10.29C16.54 9.40004 17.01 8.26 17.01 7C17.01 6.63 16.97 6.27004 16.89 5.92004C16.89 5.92004 16.87 5.84006 16.87 5.81006C16.87 5.65006 16.996 5.51696 17.156 5.50696C17.166 5.50696 17.29 5.5 17.34 5.5C19.21 5.5 20.67 7.33004 20.01 9.29004C19.72 10.16 18.98 10.8399 18.1 11.0699C17.25 11.2899 16.4499 11.13 15.8199 10.73ZM18.67 12.17C18.48 12.17 18.36 12.3 18.36 12.47C18.36 12.54 18.416 12.6299 18.47 12.6899C19.66 13.9199 20.22 15.64 20.22 17.35V18.24C20.22 18.38 20.34 18.5 20.49 18.5H22C22.28 18.5 22.5 18.28 22.5 18V16.01C22.5 14.24 21.5 12.17 18.67 12.17ZM5.90002 11.0699C6.75002 11.2899 7.55005 11.13 8.18005 10.73C8.33005 10.63 8.33997 10.42 8.21997 10.29C7.45997 9.40004 6.98999 8.26 6.98999 7C6.98999 6.63 7.02999 6.27004 7.10999 5.92004C7.10999 5.92004 7.13 5.84006 7.13 5.81006C7.13 5.65006 7.00399 5.51696 6.84399 5.50696C6.83399 5.50696 6.71003 5.5 6.66003 5.5C4.79003 5.5 3.32999 7.33004 3.98999 9.29004C4.27999 10.16 5.02002 10.8399 5.90002 11.0699ZM5.64001 12.47C5.64001 12.3 5.51996 12.17 5.32996 12.17C2.49996 12.17 1.5 14.24 1.5 16.01V18C1.5 18.28 1.72 18.5 2 18.5H3.51001C3.66001 18.5 3.78003 18.38 3.78003 18.24V17.35C3.78003 15.64 4.34003 13.9199 5.53003 12.6899C5.58403 12.6299 5.64001 12.54 5.64001 12.47ZM12.0081 10.5C13.9381 10.5 15.5081 8.93 15.5081 7C15.5081 5.07 13.9381 3.5 12.0081 3.5C10.0781 3.5 8.50806 5.07 8.50806 7C8.50806 8.93 10.0781 10.5 12.0081 10.5ZM13.777 12.389H10.222C6.57205 12.389 5.27698 15.061 5.27698 17.35V20C5.27698 20.276 5.50098 20.5 5.77698 20.5H18.222C18.498 20.5 18.722 20.276 18.722 20V17.35C18.723 15.061 17.428 12.389 13.777 12.389Z" fill="currentColor"/>
</svg>

<svg xmlns="http://www.w3.org/2000/svg" width="24" height="24" fill="none"><path fill="currentColor" d="M15.82 10.73c-.15-.1-.16-.31-.04-.44.76-.89 1.23-2.03 1.23-3.29 0-.37-.04-.73-.12-1.08 0 0-.02-.08-.02-.11 0-.16.126-.293.286-.303.01 0 .134-.007.184-.007a2.84 2.84 0 0 1 2.67 3.79c-.29.87-1.03 1.55-1.91 1.78-.85.22-1.65.06-2.28-.34Zm2.85 1.44c-.19 0-.31.13-.31.3 0 .07.056.16.11.22 1.19 1.23 1.75 2.95 1.75 4.66v.89c0 .14.12.26.27.26H22c.28 0 .5-.22.5-.5v-1.99c0-1.77-1-3.84-3.83-3.84ZM5.9 11.07c.85.22 1.65.06 2.28-.34.15-.1.16-.31.04-.44A5.044 5.044 0 0 1 6.99 7c0-.37.04-.73.12-1.08 0 0 .02-.08.02-.11a.305.305 0 0 0-.286-.303c-.01 0-.134-.007-.184-.007a2.84 2.84 0 0 0-2.67 3.79c.29.87 1.03 1.55 1.91 1.78Zm-.26 1.4c0-.17-.12-.3-.31-.3-2.83 0-3.83 2.07-3.83 3.84V18c0 .28.22.5.5.5h1.51c.15 0 .27-.12.27-.26v-.89c0-1.71.56-3.43 1.75-4.66.054-.06.11-.15.11-.22Zm6.368-1.97c1.93 0 3.5-1.57 3.5-3.5s-1.57-3.5-3.5-3.5-3.5 1.57-3.5 3.5 1.57 3.5 3.5 3.5Zm1.769 1.889h-3.555c-3.65 0-4.945 2.672-4.945 4.961V20a.5.5 0 0 0 .5.5h12.445a.5.5 0 0 0 .5-.5v-2.65c.001-2.289-1.294-4.961-4.945-4.961Z"/></svg>
